icon/lg/chargebee-icon.svg

<?xml version="1.0" encoding="UTF-8"?>
<svg viewBox="0 0 256 288" version="1.1" xmlns="http://www.w3.org/2000/svg" xmlns:xlink="http://www.w3.org/1999/xlink" preserveAspectRatio="xMidYMid" height="1em" width="1em">
  <g>
    <path d="M243.866765,204.203335 C247.463342,206.649007 240.414052,201.757663 243.866765,204.203335 C247.031753,206.217417 248.182657,210.389446 246.744026,213.842159 C245.449259,216.863284 242.428135,218.733503 239.119284,218.58964 C235.810434,218.445777 232.933173,216.143968 231.926131,212.978981 C230.91909,209.813994 232.069995,206.217417 234.803393,204.347198 C237.536791,202.476978 241.133367,202.333115 243.866765,204.203335 Z M143.450351,277.429631 C145.176708,277.429631 147.046927,277.429631 148.773284,277.285768 C152.36986,277.141905 155.966437,276.854179 159.41915,276.42259 C162.296411,276.134863 153.520765,277.141905 159.41915,276.42259 C163.015727,275.991 165.892988,279.299851 165.173673,282.896427 C164.742083,284.478921 163.591179,285.773688 162.152548,286.493004 C161.145507,286.924593 160.138466,286.924593 159.131424,287.068456 C157.98052,287.212319 156.685752,287.356182 155.534848,287.356182 C146.039886,288.075497 136.544924,287.931634 127.049962,286.924593 C118.418179,285.917551 110.074121,284.335058 101.730064,281.745523 C93.6737334,279.299851 85.9051283,276.134863 78.4242493,272.250561 C70.7995072,268.366258 63.7502174,263.76264 56.9886536,258.58357 C49.2200485,252.829048 42.1707587,246.211347 35.8407841,238.874331 C29.5108096,231.681179 23.9001503,223.76871 19.1526694,215.568516 C14.2613255,207.080596 10.2331598,198.161086 7.21203558,188.809987 C4.04704831,179.315026 2.0329655,169.532338 0.882061043,159.605787 C-0.268843423,149.535373 -0.268843423,139.321095 0.738197983,129.250681 C1.74523938,119.32413 3.75932219,109.397579 6.92430947,99.9026181 C9.94543366,90.5515189 13.8297363,81.6320093 18.7210802,73.0002259 C23.4685612,64.5123055 29.2230835,56.5998373 35.553058,49.2628213 C41.8830326,42.0696684 48.9323224,35.4519678 56.5570645,29.5535824 C64.3256696,23.655197 72.6697269,18.476127 81.3015104,14.3040983 C90.22102,9.98820654 99.5721185,6.67935625 109.210943,4.23368427 C118.993631,1.78801229 129.064045,0.49324477 139.134459,0.0616555961 C149.204873,-0.226070519 159.41915,0.49324477 169.345701,2.21960146 C178.984526,3.94595815 188.479488,6.67935625 197.686724,10.2759327 C206.750096,13.8725091 215.38188,18.476127 223.438211,23.7990601 C231.494542,29.1219932 238.975421,35.3081047 245.880848,42.2135315 C248.758109,45.0907927 251.347644,47.9680538 253.217864,51.7084933 C254.800358,54.8734806 255.663536,58.470057 255.951262,61.9227704 C256.382851,69.1159233 253.937179,76.4529393 249.045835,81.7758724 C243.435176,88.105847 234.947256,91.5585603 226.603198,90.9831081 C222.575033,90.695382 218.546867,89.5444775 214.950291,87.5303947 C213.080071,86.5233533 211.353714,85.2285858 209.915084,83.7899552 C208.188727,82.2074616 206.606233,80.3372418 204.879877,78.7547482 C197.830587,72.1370475 189.774256,66.8141144 180.998609,62.7859488 C171.935236,58.7577832 162.296411,56.1682481 152.513724,55.3050698 C142.443309,54.4418914 132.229032,55.1612067 122.446344,57.6068787 C112.951383,60.0525507 103.88801,64.0807163 95.5439531,69.4036494 C87.4876219,74.7265826 80.294469,81.3442832 74.3960836,88.8251622 C68.3538352,96.4499043 63.6063543,105.081688 60.297504,114.288923 C56.9886536,123.640022 55.2622969,133.566573 55.2622969,143.493124 C55.2622969,153.563538 56.8447906,163.490089 60.1536409,172.985051 C63.3186282,182.192287 68.0661091,190.680207 73.9644945,198.304949 C79.8628798,205.929691 87.0560327,212.547392 95.112364,217.870325 C103.312558,223.337121 112.37593,227.365287 122.014755,229.810959 C131.797443,232.400494 142.01172,233.119809 152.082134,232.256631 C161.864822,231.393452 171.503647,228.94778 180.56702,224.919615 C181.574061,224.488026 182.43724,223.912573 183.444281,223.76871 C184.307459,223.624847 185.170638,223.624847 186.033816,223.912573 C187.760173,224.488026 189.05494,225.782793 189.486529,227.50915 C189.918119,229.091644 189.630392,230.961863 188.479488,232.256631 C187.904036,232.975946 187.040857,233.407535 186.177679,233.839124 C185.026775,234.270714 184.019733,234.846166 182.868829,235.277755 C173.661593,239.162058 164.022768,241.60773 154.096217,242.470908 C144.025803,243.477949 133.811526,242.902497 124.028838,240.888414 C125.323606,242.327045 126.47451,243.909538 127.625415,245.492032 C128.776319,247.074526 129.927223,248.800882 130.934265,250.383376 C131.078128,250.671102 131.509717,251.246554 131.509717,251.246554 C131.509717,251.246554 131.65358,251.246554 131.941306,251.246554 C132.516758,251.246554 132.948348,251.390417 133.5238,251.390417 C134.530841,251.534281 135.537883,251.534281 136.544924,251.678144 C140.716953,251.96587 144.888981,251.96587 149.06101,251.822007 C157.261204,251.390417 165.461399,250.239513 173.373867,247.937704 C180.998609,245.779758 188.479488,242.758634 195.528778,239.018195 C202.434205,235.277755 208.908042,230.961863 214.806428,225.782793 C216.245058,224.488026 217.683689,223.193258 219.122319,221.898491 C220.417087,220.747586 221.424128,219.308956 223.006622,218.58964 C225.74002,217.15101 229.04887,217.582599 231.350679,219.452819 C233.796351,221.323038 234.803393,224.488026 234.084077,227.50915 C233.652488,229.091644 232.933173,230.386411 231.782268,231.393452 C230.343638,232.68822 229.04887,234.126851 227.61024,235.421618 C221.855717,240.600688 215.669606,245.348169 209.051905,249.376335 C202.290342,253.548363 195.241052,257.001077 187.760173,259.734475 C180.135431,262.611736 172.366826,264.625819 164.310494,265.920586 C156.1103,267.215354 147.766243,267.790806 139.422185,267.50308 C140.141501,269.3733 140.716953,271.243519 141.292405,273.113739 C141.580131,273.976918 141.723994,274.840096 142.01172,275.703274 C142.01172,275.991 142.299446,276.710316 142.299446,276.710316 L143.450351,277.429631 Z M223.725937,250.958828 C226.027746,249.232472 208.908042,261.892421 223.725937,250.958828 C224.445252,250.383376 225.452294,249.951787 226.603198,249.664061 C228.473418,249.520198 230.487501,250.527239 231.494542,252.253596 C232.501584,253.979953 232.501584,256.281761 231.350679,257.864255 C230.631364,258.871297 229.624323,259.446749 228.761144,260.166064 C227.754103,260.885379 226.603198,261.604695 225.596157,262.32401 C223.582074,263.76264 221.424128,265.201271 219.266182,266.496039 C210.634399,271.818972 201.427163,276.278727 191.932201,279.587577 C187.18472,281.313934 182.293377,282.752564 177.402033,283.903469 C175.244087,284.335058 173.086141,284.047332 171.64751,282.177112 C170.352743,280.594618 170.065017,278.436672 171.072058,276.566453 C171.503647,275.703274 172.079099,274.983959 172.942278,274.55237 C173.949319,273.976918 175.100224,273.833055 176.107265,273.545328 C178.552937,272.969876 180.998609,272.250561 183.444281,271.531246 C188.335625,269.948752 193.083106,268.222395 197.686724,266.208312 C206.893959,262.180147 215.669606,257.001077 223.725937,250.958828 Z M240.989504,235.421618 C243.003587,233.263672 239.119284,237.435701 240.989504,235.421618 C243.291313,232.975946 247.463342,233.407535 249.189698,236.284796 C249.909014,237.435701 250.052877,239.018195 249.765151,240.312962 C249.333561,242.039319 248.038794,243.190223 246.887889,244.341128 C245.593122,245.779758 244.154491,247.218389 242.715861,248.513156 C241.421093,249.664061 239.8386,250.383376 237.96838,250.09565 C234.947256,249.664061 232.933173,246.499074 233.796351,243.477949 C234.371803,241.895456 235.666571,240.888414 236.817475,239.73751 C238.256106,238.298879 239.694737,236.860249 240.989504,235.421618 Z M208.33259,205.210376 C210.346673,203.196293 203.297383,210.533309 208.33259,205.210376 C210.058947,203.484019 212.792345,203.196293 214.950291,204.347198 C217.108237,205.641965 217.971415,208.375363 217.108237,210.677172 C216.532784,211.828077 215.669606,212.691255 214.806428,213.554433 C213.799386,214.561475 212.936208,215.568516 211.929166,216.431694 C210.20281,218.014188 208.476453,219.596682 206.750096,221.035312 C204.879877,222.473943 202.865794,223.912573 200.851711,225.351204 C198.693765,226.933698 196.10423,227.077561 194.090147,225.351204 C192.363791,223.912573 191.788338,221.466901 192.651517,219.452819 C193.083106,218.445777 193.802421,217.582599 194.665599,217.007147 C195.672641,216.287831 196.823545,215.424653 197.830587,214.705338 C201.571026,211.828077 205.02374,208.663089 208.33259,205.210376 Z M144.025803,109.973032 C145.75216,109.973032 147.478517,110.116895 149.348736,110.116895 C156.1103,111.267799 162.584138,114.432786 167.619345,119.180267 C172.510689,123.927748 176.107265,130.257723 177.402033,137.019287 C178.840663,144.068576 177.977485,151.405592 175.100224,157.87943 C172.222962,164.209404 167.619345,169.388475 161.720959,172.985051 C155.678711,176.72549 148.485558,178.451847 141.436268,177.876395 C134.530841,177.444806 127.769278,174.711408 122.446344,170.251653 C117.123411,165.935761 113.239109,160.037376 111.368889,153.419675 C109.354806,146.514248 109.642532,139.033369 112.088204,132.415669 C114.390013,125.941831 118.705905,120.331172 124.316564,116.303006 C130.071087,112.130978 136.976513,109.973032 144.025803,109.973032 Z" fill="#FF6C36" fill-rule="nonzero"/>
  </g>
</svg>

<svg width="256" height="288" xmlns="http://www.w3.org/2000/svg" preserveAspectRatio="xMidYMid"><path d="M243.867 204.203c3.596 2.446-3.453-2.445 0 0 3.165 2.014 4.316 6.186 2.877 9.64-1.295 3.02-4.316 4.89-7.625 4.747-3.309-.144-6.186-2.446-7.193-5.611-1.007-3.165.144-6.762 2.877-8.632 2.734-1.87 6.33-2.014 9.064-.144ZM143.45 277.43c1.727 0 3.597 0 5.323-.144 3.597-.144 7.193-.432 10.646-.863 2.877-.288-5.898.719 0 0 3.597-.432 6.474 2.877 5.755 6.473-.432 1.583-1.583 2.878-3.021 3.597-1.007.432-2.015.432-3.022.575-1.15.144-2.445.288-3.596.288-9.495.72-18.99.576-28.485-.431-8.632-1.007-16.976-2.59-25.32-5.18a136.538 136.538 0 0 1-23.306-9.494c-7.624-3.885-14.674-8.488-21.435-13.667-7.769-5.755-14.818-12.373-21.148-19.71-6.33-7.193-11.94-15.105-16.688-23.305-4.892-8.488-8.92-17.408-11.941-26.759-3.165-9.495-5.179-19.278-6.33-29.204-1.15-10.07-1.15-20.285-.144-30.355 1.007-9.927 3.021-19.853 6.186-29.348C9.945 90.552 13.83 81.632 18.721 73c4.748-8.488 10.502-16.4 16.832-23.737a151.445 151.445 0 0 1 21.004-19.71c7.769-5.898 16.113-11.077 24.745-15.249 8.919-4.316 18.27-7.625 27.909-10.07 9.783-2.446 19.853-3.74 29.923-4.172a151.82 151.82 0 0 1 30.212 2.158c9.639 1.726 19.133 4.46 28.34 8.056 9.064 3.597 17.696 8.2 25.752 13.523 8.057 5.323 15.537 11.51 22.443 18.415 2.877 2.877 5.467 5.754 7.337 9.494 1.582 3.165 2.446 6.762 2.733 10.215.432 7.193-2.014 14.53-6.905 19.853-5.61 6.33-14.099 9.783-22.443 9.207-4.028-.288-8.056-1.439-11.653-3.453a21.83 21.83 0 0 1-5.035-3.74c-1.726-1.583-3.309-3.453-5.035-5.035-7.05-6.618-15.106-11.94-23.881-15.97-9.064-4.027-18.703-6.617-28.485-7.48-10.07-.863-20.285-.144-30.068 2.302-9.495 2.446-18.558 6.474-26.902 11.797-8.056 5.323-15.25 11.94-21.148 19.421-6.042 7.625-10.79 16.257-14.098 25.464-3.31 9.351-5.036 19.278-5.036 29.204 0 10.07 1.583 19.997 4.892 29.492 3.165 9.207 7.912 17.695 13.81 25.32 5.899 7.625 13.092 14.242 21.148 19.565a86.957 86.957 0 0 0 26.903 11.941c9.782 2.59 19.997 3.309 30.067 2.446 9.783-.864 19.422-3.31 28.485-7.337 1.007-.432 1.87-1.007 2.877-1.151.863-.144 1.727-.144 2.59.144 1.726.575 3.02 1.87 3.453 3.596.431 1.583.143 3.453-1.008 4.748-.575.719-1.438 1.15-2.301 1.582-1.151.432-2.158 1.007-3.31 1.439-9.206 3.884-18.845 6.33-28.772 7.193-10.07 1.007-20.284.431-30.067-1.583 1.295 1.439 2.446 3.022 3.596 4.604a97.568 97.568 0 0 1 3.31 4.891c.143.288.575.864.575.864h.431c.576 0 1.007.143 1.583.143 1.007.144 2.014.144 3.02.288 4.173.288 8.345.288 12.517.144 8.2-.432 16.4-1.582 24.313-3.884 7.625-2.158 15.105-5.18 22.155-8.92 6.905-3.74 13.379-8.056 19.277-13.235l4.316-3.885c1.295-1.15 2.302-2.589 3.885-3.308 2.733-1.439 6.042-1.007 8.344.863 2.445 1.87 3.452 5.035 2.733 8.056-.432 1.583-1.15 2.877-2.302 3.884-1.438 1.295-2.733 2.734-4.172 4.029-5.754 5.179-11.94 9.926-18.558 13.954-6.762 4.172-13.81 7.625-21.292 10.358-7.625 2.878-15.393 4.892-23.45 6.187-8.2 1.294-16.544 1.87-24.888 1.582.72 1.87 1.295 3.74 1.87 5.61.288.864.432 1.727.72 2.59 0 .288.287 1.007.287 1.007l1.151.72Zm80.276-26.471c2.302-1.727-14.818 10.933 0 0 .72-.576 1.726-1.007 2.877-1.295 1.87-.144 3.885.863 4.892 2.59 1.007 1.726 1.007 4.028-.144 5.61-.72 1.007-1.727 1.583-2.59 2.302-1.007.72-2.158 1.439-3.165 2.158a96.168 96.168 0 0 1-6.33 4.172c-8.632 5.323-17.839 9.783-27.334 13.092a129.346 129.346 0 0 1-14.53 4.315c-2.158.432-4.316.144-5.754-1.726-1.295-1.582-1.583-3.74-.576-5.61.432-.864 1.007-1.583 1.87-2.015 1.007-.575 2.158-.719 3.165-1.007 2.446-.575 4.892-1.294 7.337-2.014 4.892-1.582 9.64-3.309 14.243-5.323 9.207-4.028 17.983-9.207 26.039-15.25Zm17.264-15.537c2.014-2.158-1.87 2.014 0 0 2.301-2.446 6.473-2.014 8.2.863.719 1.15.863 2.733.575 4.028-.431 1.726-1.726 2.877-2.877 4.028a57.073 57.073 0 0 1-4.172 4.172c-1.295 1.151-2.877 1.87-4.748 1.583-3.02-.432-5.035-3.597-4.172-6.618.576-1.583 1.87-2.59 3.021-3.74 1.44-1.44 2.878-2.878 4.173-4.316Zm-32.657-30.212c2.014-2.014-5.036 5.323 0 0 1.726-1.726 4.46-2.014 6.617-.863 2.158 1.295 3.021 4.028 2.158 6.33-.575 1.151-1.438 2.014-2.302 2.877-1.007 1.007-1.87 2.015-2.877 2.878-1.726 1.582-3.453 3.165-5.179 4.603-1.87 1.439-3.884 2.878-5.898 4.316-2.158 1.583-4.748 1.727-6.762 0-1.726-1.438-2.302-3.884-1.438-5.898a5.62 5.62 0 0 1 2.014-2.446c1.007-.72 2.158-1.582 3.165-2.302 3.74-2.877 7.193-6.042 10.502-9.495Zm-64.307-95.237c1.726 0 3.453.144 5.323.144 6.761 1.15 13.235 4.316 18.27 9.063 4.892 4.748 8.488 11.078 9.783 17.84 1.439 7.049.575 14.386-2.302 20.86a34.08 34.08 0 0 1-13.379 15.105 33.58 33.58 0 0 1-20.285 4.891c-6.905-.431-13.667-3.165-18.99-7.624a33.394 33.394 0 0 1-11.077-16.832c-2.014-6.906-1.726-14.387.72-21.004 2.301-6.474 6.617-12.085 12.228-16.113 5.754-4.172 12.66-6.33 19.709-6.33Z" fill="#FF6C36"/></svg>
